X:19073
T:Skye Boat Song, The
T:Over the Sea to Skye
R:Air
C:Trad.
O:Scotland
Z:Paul Hardy's Session Tunebook 2022 (see www.paulhardy.net). Creative Commons cc by-nc-sa licenced.
M:3/4
Q:1/4=120
L:1/4
K:G
"G"D>ED|"Em"G2G|"Am"A>BA|"D7"d3|"G"B>AB|"C"E2E|"G"D3-|"D7"D3+fine+y:|
|:"Em"B>GB|B3|"Am"A>EA|A3|"Em"G>EG|G2G|1 E3|E2 B:|2 "C"E3|"D"D2 D||

